X: 1
T: Antony Frawley's
M: 6/8
L: 1/8
R: jig
K: Gmaj
GED GBA|GED ~G2A|GED GAB|dBA{d}~B2A|
GED GAB|def ~g2a|bag (3efg e|1dBG ABA:|2dBG ABc||
dBd edB|def {b}g2e|~d2d edB|dBG ABc|
~d2d edB|def g2a|bag (3efg e|dBG ABc|
